assets/images/ico_folder_f.svg

<svg width="37" height="32" viewBox="0 0 37 32" fill="none" xmlns="http://www.w3.org/2000/svg">
<path d="M34.3626 4.58333C34.3626 3.475 33.5861 2.66667 32.4791 2.66667H16.4285C16.1972 2.66667 16.0733 2.61667 15.9246 2.46667L14.0659 0.591667L14.0494 0.575C13.6446 0.191667 13.3142 0 12.6203 0H4.68167C3.54168 0 2.64126 0.858333 2.64126 1.91667V8H34.3626V4.58333ZM2.64126 10.3333H1.95562C0.898241 10.3333 -0.134354 10.7583 0.01434 12.3583C0.163034 13.9583 1.95562 29.9167 1.95562 29.9167C2.17866 31.4 2.92213 32 4.02081 32H33.14C34.1891 32 34.8747 31.35 35.04 29.9167C35.04 29.9167 36.8738 14.5083 36.9895 12.7917C37.1051 11.0833 36.2543 10.3333 35.04 10.3333H2.64126Z" fill="#D3C9BE"/>
<g filter="url(#filter0_i)">
<path d="M18.0288 25.8742V27H19.9789V25.8742C23.0269 25.786 25 24.1304 25 21.4816C25 18.8107 23.0269 17.1552 19.9789 17.0742V16H18.0288V17.0742C14.9808 17.1625 13 18.8181 13 21.4742C13 24.1378 14.9808 25.8007 18.0288 25.8742ZM18.0518 24.3144C16.1785 24.2408 14.9962 23.1739 14.9962 21.4742C14.9962 19.7893 16.1785 18.7151 18.0518 18.6415V24.3144ZM23.0115 21.4816C23.0115 23.1592 21.8292 24.2334 19.9635 24.3144V18.6415C21.8292 18.7077 23.0115 19.7819 23.0115 21.4816Z" fill="#ABA297"/>
</g>
<defs>
<filter id="filter0_i" x="13" y="16" width="12" height="12" filterUnits="userSpaceOnUse" color-interpolation-filters="sRGB">
<feFlood flood-opacity="0" result="BackgroundImageFix"/>
<feBlend mode="normal" in="SourceGraphic" in2="BackgroundImageFix" result="shape"/>
<feColorMatrix in="SourceAlpha" type="matrix" values="0 0 0 0 0 0 0 0 0 0 0 0 0 0 0 0 0 0 127 0" result="hardAlpha"/>
<feOffset dy="1"/>
<feGaussianBlur stdDeviation="0.5"/>
<feComposite in2="hardAlpha" operator="arithmetic" k2="-1" k3="1"/>
<feColorMatrix type="matrix" values="0 0 0 0 0 0 0 0 0 0 0 0 0 0 0 0 0 0 0.25 0"/>
<feBlend mode="normal" in2="shape" result="effect1_innerShadow"/>
</filter>
</defs>
</svg>

<svg width="37" height="32" fill="none" xmlns="http://www.w3.org/2000/svg"><path d="M34.363 4.583c0-1.108-.777-1.916-1.884-1.916H16.43c-.232 0-.356-.05-.504-.2L14.065.592 14.05.575C13.645.192 13.314 0 12.62 0H4.682c-1.14 0-2.04.858-2.04 1.917V8h31.72V4.583zM2.64 10.333h-.685c-1.058 0-2.09.425-1.942 2.025.149 1.6 1.942 17.559 1.942 17.559C2.179 31.4 2.922 32 4.02 32h29.12c1.05 0 1.735-.65 1.9-2.083 0 0 1.834-15.409 1.95-17.125.115-1.709-.736-2.459-1.95-2.459H2.641z" fill="#D3C9BE"/><g filter="url(#filter0_i)"><path d="M18.029 25.874V27h1.95v-1.126C23.027 25.786 25 24.13 25 21.482c0-2.671-1.973-4.327-5.021-4.408V16h-1.95v1.074c-3.048.088-5.029 1.744-5.029 4.4 0 2.664 1.98 4.327 5.029 4.4zm.023-1.56c-1.873-.073-3.056-1.14-3.056-2.84 0-1.685 1.182-2.759 3.056-2.832v5.672zm4.96-2.832c0 1.677-1.183 2.751-3.049 2.832v-5.672c1.866.066 3.049 1.14 3.049 2.84z" fill="#ABA297"/></g><defs><filter id="filter0_i" x="13" y="16" width="12" height="12" filterUnits="userSpaceOnUse" color-interpolation-filters="sRGB"><feFlood flood-opacity="0" result="BackgroundImageFix"/><feBlend in="SourceGraphic" in2="BackgroundImageFix" result="shape"/><feColorMatrix in="SourceAlpha" values="0 0 0 0 0 0 0 0 0 0 0 0 0 0 0 0 0 0 127 0" result="hardAlpha"/><feOffset dy="1"/><feGaussianBlur stdDeviation=".5"/><feComposite in2="hardAlpha" operator="arithmetic" k2="-1" k3="1"/><feColorMatrix values="0 0 0 0 0 0 0 0 0 0 0 0 0 0 0 0 0 0 0.25 0"/><feBlend in2="shape" result="effect1_innerShadow"/></filter></defs></svg>
